assets/logos/color_logo/coleco.svg

<?xml version="1.0" encoding="UTF-8" standalone="no"?>
<svg
   xmlns:dc="http://purl.org/dc/elements/1.1/"
   xmlns:cc="http://creativecommons.org/ns#"
   xmlns:rdf="http://www.w3.org/1999/02/22-rdf-syntax-ns#"
   xmlns:svg="http://www.w3.org/2000/svg"
   xmlns="http://www.w3.org/2000/svg"
   xmlns:sodipodi="http://sodipodi.sourceforge.net/DTD/sodipodi-0.dtd"
   xmlns:inkscape="http://www.inkscape.org/namespaces/inkscape"
   width="500"
   height="200"
   viewBox="0 0 500 200"
   version="1.1"
   id="svg66"
   sodipodi:docname="coleco.svg"
   inkscape:version="0.92.5 (2060ec1f9f, 2020-04-08)">
  <metadata
     id="metadata70">
    <rdf:RDF>
      <cc:Work
         rdf:about="">
        <dc:format>image/svg+xml</dc:format>
        <dc:type
           rdf:resource="http://purl.org/dc/dcmitype/StillImage" />
        <dc:title>mainlogo</dc:title>
      </cc:Work>
    </rdf:RDF>
  </metadata>
  <sodipodi:namedview
     pagecolor="#ffffff"
     bordercolor="#666666"
     borderopacity="1"
     objecttolerance="10"
     gridtolerance="10"
     guidetolerance="10"
     inkscape:pageopacity="0"
     inkscape:pageshadow="2"
     inkscape:window-width="1366"
     inkscape:window-height="740"
     id="namedview68"
     showgrid="false"
     inkscape:pagecheckerboard="true"
     inkscape:zoom="1.4492866"
     inkscape:cx="201.5"
     inkscape:cy="63.5"
     inkscape:window-x="0"
     inkscape:window-y="0"
     inkscape:window-maximized="1"
     inkscape:current-layer="svg66" />
  <title
     id="title37">mainlogo</title>
  <defs
     id="defs52">
    <linearGradient
       x1="4.352488"
       y1="116.71485"
       x2="208.37537"
       y2="116.71485"
       id="linearGradient-1"
       gradientTransform="scale(1.8380291,0.54406103)"
       gradientUnits="userSpaceOnUse">
      <stop
         stop-color="#F090A7"
         offset="0%"
         id="stop39" />
      <stop
         stop-color="#EF7B75"
         offset="14.947076%"
         id="stop41" />
      <stop
         stop-color="#EE6E5E"
         offset="25.638369%"
         id="stop43" />
      <stop
         stop-color="#FCE72C"
         offset="58.937144%"
         id="stop45" />
      <stop
         stop-color="#ACDEE4"
         offset="81.312746%"
         id="stop47" />
      <stop
         stop-color="#A3DDF2"
         offset="100%"
         id="stop49" />
    </linearGradient>
  </defs>
  <g
     id="Page-1"
     style="fill:none;fill-rule:evenodd;stroke:none;stroke-width:1"
     transform="matrix(1.2362761,0,0,1.2362761,2.0699839,24.363012)">
    <g
       id="mainlogo"
       style="fill-rule:nonzero">
      <g
         id="COLECO_VISION_LOGO">
        <path
           d="m 70.59375,65.609375 c 1.859225,1.297855 3.893235,2.456995 6.25,3.140625 L 65.296875,85.734375 56.53125,69.5 H 64.5 c 1.629285,0 3.432045,-0.387455 4.75,-1.703125 0.64639,-0.64527 1.07463,-1.39341 1.34375,-2.1875 z M 22,0 C 14.244317,0 8.5061185,3.204645 4.984375,7.375 1.4626317,11.545355 0,16.470499 0,20.5 V 48 48.01563 c 0.013339,4.950235 1.8662361,10.010855 5.125,14.015625 2.9209115,3.589575 7.13874,6.32595 12.125,6.859375 l 34.1875,56.65626 0.875,1.45327 H 54 76 77.65625 l 0.890625,-1.4064 L 101,89.90625 V 119 v 0.0156 c 0.0136,1.82923 0.39515,3.76385 1.6875,5.39063 1.29236,1.62679 3.50715,2.59392 5.8125,2.59392 H 182 c 2.66846,0.007 5.24432,-0.82801 7.5625,-1.93765 0.67407,-0.32265 1.24561,-0.71578 1.85937,-1.07812 1.06563,1.57952 3.12673,3.01577 5.57813,3.01577 h 18.96875 c 0.0106,0 0.0206,0 0.0312,0 2.42946,0.0141 4.63987,-0.99888 6.01562,-2.56265 0.20399,-0.23187 0.36069,-0.48702 0.53125,-0.73437 3.18617,1.8699 7.07525,3.29702 10.95313,3.29702 h 42 0.1875 l 0.17187,-0.0158 c 6.88847,-0.847 9.60364,-2.16405 11.4375,-3.29688 1.3939,1.96994 3.32779,3.31263 5.70313,3.31263 h 19 c 1.71296,0 3.09973,-0.51177 4.70312,-1.60952 C 318.30652,124.29287 320,122.21989 320,119.5 v -31 h 12.5 c 0.77591,0.0015 1.79862,0.340575 2.46875,0.890625 C 335.63888,89.940675 336,90.522795 336,91.5 v 28 0.0156 c 0.0145,1.86752 0.70486,3.23736 1.875,4.67188 1.17014,1.43451 3.12761,2.81267 5.625,2.81267 H 363 c 2.18355,0 3.79296,-1.03734 5.09375,-2.31267 C 369.39454,123.41217 370.5,121.74017 370.5,119.5 V 81 80.8125 l -0.0312,-0.1875 c -0.35602,-2.82174 -0.59032,-6.50038 -3.4063,-11.125 h 2.28125 c 0.0532,0.003 0.10314,-0.0025 0.15625,0 5.72741,0.24685 10.75984,-2.87933 14.375,-6.765625 C 387.52368,58.812045 390,54.09402 390,49.5 v -29 -0.01563 C 389.98798,15.884051 388.05523,10.930213 384.42187,6.9375 380.78852,2.9447871 375.29525,0 368.5,0 H 326 C 321.38804,0 317.39237,1.7236589 314.15625,3.90625 313.94784,3.4761622 313.77476,3.0431955 313.46875,2.625 312.48608,1.2821063 310.68511,0 308.5,0 h -43 c -3.92409,0 -7.08763,1.1430998 -9.5,2.484375 V 0 h -3 -68.5 -3 v 3 35.5 h -9.5 -0.0156 -0.0156 c -0.58641,0.0073 -1.78805,-0.257871 -2.48438,-0.71875 C 168.78805,37.320371 168.5,37.013958 168.5,36 V 7 c 0,-4.2355826 -3.7145,-7 -7.5,-7 h -19 c -2.24607,0 -4.11083,1.1285472 -5.34375,2.484375 -0.18714,0.2057966 -0.28775,0.454543 -0.45313,0.671875 C 133.47941,1.5203485 130.33985,0 126.5,0 h -45 C 77.0245,0 73.408475,1.8671076 70.578125,3.90625 70.281755,3.2313803 69.839795,2.634781 69.28125,2.046875 68.213585,0.92308585 66.500045,0 64.5,0 Z"
           id="Shape"
           inkscape:connector-curvature="0"
           style="fill:#ffffff" />
        <path
           d="M 68,10 C 70.51948,7.551501 75.40619,3 81.5,3 h 45 c 4.13003,0 7.576,2.354538 11,4.5 C 137.65327,5.493301 139.51264,3 142,3 h 19 c 2.27066,0 4.5,1.719851 4.5,4 v 29 c 0,4.039364 4.06248,5.530407 6.5,5.5 h 12.5 V 3 H 253 V 8.5 C 254.51908,7.030786 258.45616,3 265.5,3 h 43 c 2.22733,0 3.40064,2.3864555 3.5,4 V 9.5 C 314.99936,6.358254 320.20035,3 326,3 h 42.5 c 11.89934,0 18.48057,10.061849 18.5,17.5 v 29 c 0,6.684015 -8.36848,17.49264 -17.5,17 H 361 c 6.13477,6.64486 5.98541,10.420875 6.5,14.5 v 38.5 c 0,2.13354 -2.50349,4.5003 -4.5,4.5003 h -19.5 c -2.8158,0 -4.48886,-3.06809 -4.5,-4.5003 v -28 c 0,-3.79423 -3.49035,-5.994465 -6.5,-6 H 317 v 34 c 0,3.09162 -3.6298,4.5003 -5,4.5003 h -19 c -1.76209,0 -3.63777,-1.58699 -4.5,-4.5003 -3.26561,1.55209 -3.03503,3.27472 -13,4.5003 h -42 c -4.19987,0 -9.68783,-2.61684 -12.5,-5.0003 0,2.49756 -1.62881,5.03229 -5,5.0003 h -19 c -3.26881,0 -4,-3.23829 -4,-5.0003 -1.8825,2.26341 -7.06613,5.01 -11,5.0003 h -73.5 c -3.25225,0 -4.47929,-2.20932 -4.5,-5.0003 V 79.5 L 76,124.0003 H 54 L 19,66 C 9.5219005,66 3.0224997,56.34996 3,48 V 20.5 C 3,14.000409 8.067765,3 22,3 H 64.5 C 66.7894,3 68,4.958223 68,6 Z m 14,56.5 c -5.96799,0 -10.726445,-3.47527 -14,-7 V 63 c -0.0617,2.470245 -1.099315,3.5 -3.5,3.5 h -13 l 13.5,25 z"
           id="path55"
           inkscape:connector-curvature="0"
           style="fill:#000000" />
        <path
           d="m 192.5,65 v 15.5 h -44 c -5.02897,0 -4.74789,5 0,5 0,0 19.33333,0 29,0 22.59359,0 22.58743,33.5 0,33.5 -15.16667,0 -45.5,0 -45.5,0 v -15 c 0,0 29,0 43.5,0 5.20622,0 4.85252,-5 0,-5 -9,0 -27,0 -27,0 -23.21762,0 -23.13547,-34 0,-34 14.66666,0 44,0 44,0 z m 101,0 H 345 c 9.24333,0 17.47868,7.17654 17.5,17 v 37 H 344 V 87 c 0,-5.340605 -3.17642,-6.42353 -7,-6.5 H 312 V 119 H 293.5 Z M 245,80.060425 c -4.9152,0.029 -7,3.11505 -7,6.939575 v 10 c 0,4.15412 3.57185,7 7,7 h 20.5 c 2.43069,0 6.5,-1.64566 6.5,-7 V 87 c 0,-3.363285 -2.04902,-7.086665 -6.5,-7.060563 z M 238,65 h 34.5 c 10.95058,0 18,7.458175 18,16.5 v 20 c 0,14.18216 -12.25313,17.5 -18,17.5 H 238 c -12.9589,0 -18.5,-10.42654 -18.5,-17.5 v -20 C 219.5,69.98456 229.80535,65 238,65 Z m -40.5,0 H 216 v 54 h -18.5 z m -89,0 H 127 v 54 h -18.5 z m -84,0 H 45 l 20,35 23.5,-35 h 17 l -32,54 H 56.691275 Z M 189.5,8 H 248 v 13.5 h -40.5 v 5 H 248 V 40 h -40.5 c 0,4.963599 3.64575,7 7.5,7 h 33 v 14.5 h -42.5 c -9.52193,0 -16.06964,-7.90448 -16.0476,-16.5 z m -47,0 h 18 v 32 c 0,4.597141 3.46464,7.047719 7.5,7 h 19.5 v 14.5 h -28 c -7.94967,0 -17,-3.57341 -17,-16.5 z m 166,-9e-4 H 268 c -11.65265,0 -16.47337,10.718704 -16.5,16.5 v 20 c 0,12.970635 10.67016,17.57585 16.5,17.5 h 40.5 v -15 h -31 c -2.20583,0 -7.5,-1.633451 -7.5,-6.5 v -10.5 c 0,-5.001803 3.76537,-7 7.5,-7 h 31 z m 29,15.061345 c -4.91521,0.02897 -7,3.115052 -7,6.939575 v 10 c 0,4.154126 3.57186,7 7,7 H 358 c 2.43069,0 6.5,-1.645665 6.5,-7 v -10 c 0,-3.363286 -2.04902,-7.086664 -6.5,-7.060563 z m -7,-15.0604465 H 365 c 10.95058,0 18,7.4581995 18,16.5000215 v 20 c 0,14.182145 -12.25313,17.499978 -18,17.499978 h -34.5 c -12.95889,0 -18.5,-10.426538 -18.5,-17.5 v -20 C 312,12.984557 322.30536,7.9999985 330.5,7.9999985 Z M 93.5,23.060425 c -4.915205,0.02898 -7,3.115052 -7,6.939575 v 10 c 0,4.154126 3.571855,7 7,7 H 114 c 2.43069,0 6.5,-1.645665 6.5,-7 V 30 c 0,-3.363286 -2.04901,-7.086664 -6.5,-7.060563 z M 86.5,8 H 121 c 10.95058,0 18,7.458178 18,16.5 v 20 C 139,58.682165 126.74687,62 121,62 H 86.5 c -12.958895,0 -18,-10.42654 -18,-17.5 v -20 C 68.5,12.984559 78.305355,8 86.5,8 Z M 65,8 H 24.5 C 12.847353,8 8.026633,18.718704 8,24.5 v 20 C 8,57.470635 18.670156,62.07585 24.5,62 H 65 V 47 H 33.5 C 31.294166,47 26,45.366549 26,40.5 V 30 c 0,-5.001803 3.765369,-7 7.5,-7 H 65 Z"
           id="path57"
           inkscape:connector-curvature="0"
           style="fill:url(#linearGradient-1)" />
      </g>
      <g
         id="Group-9"
         transform="translate(390)"
         style="fill:#ffffff">
        <polygon
           id="Path"
           points="3.1025641,0.96808511 3.1025641,6.5 2.1153846,6.5 2.1153846,0.96808511 0,0.96808511 0,0 5.5,0 5.5,0.96808511 " />
        <polygon
           id="polygon61"
           points="13,6.5 12.031915,6.5 12.031915,0.96808511 10.37234,6.5 9.4042553,6.5 7.606383,0.96808511 7.606383,6.5 6.5,6.5 6.5,3.0708296e-16 8.1595745,3.0708296e-16 9.8191489,5.2553192 11.478723,0 13,0 " />
      </g>
    </g>
  </g>
</svg>

<?xml version="1.0" encoding="UTF-8"?>
<svg width="403px" height="127px" viewBox="0 0 403 127" version="1.1" xmlns="http://www.w3.org/2000/svg" xmlns:xlink="http://www.w3.org/1999/xlink">
    <title>mainlogo</title>
    <defs>
        <linearGradient x1="0%" y1="50.0004054%" x2="100%" y2="50.0004054%" id="linearGradient-1">
            <stop stop-color="#F090A7" offset="0%"></stop>
            <stop stop-color="#EF7B75" offset="14.947076%"></stop>
            <stop stop-color="#EE6E5E" offset="25.638369%"></stop>
            <stop stop-color="#FCE72C" offset="58.937144%"></stop>
            <stop stop-color="#ACDEE4" offset="81.312746%"></stop>
            <stop stop-color="#A3DDF2" offset="100%"></stop>
        </linearGradient>
    </defs>
    <g id="Page-1" stroke="none" stroke-width="1" fill="none" fill-rule="evenodd">
        <g id="mainlogo" fill-rule="nonzero">
            <g id="COLECO_VISION_LOGO">
                <path d="M70.59375,65.609375 C72.452975,66.90723 74.486985,68.06637 76.84375,68.75 L65.296875,85.734375 L56.53125,69.5 L64.5,69.5 C66.129285,69.5 67.932045,69.112545 69.25,67.796875 C69.89639,67.151605 70.32463,66.403465 70.59375,65.609375 Z M22,0 C14.244317,0 8.5061185,3.20464495 4.984375,7.375 C1.46263165,11.545355 0,16.4704995 0,20.5 L0,48 L0,48.015625 C0.013339,52.96586 1.86623615,58.02648 5.125,62.03125 C8.0459115,65.620825 12.26374,68.3572 17.25,68.890625 L51.4375,125.546875 L52.3125,127.000148 L54,127.000148 L76,127.000148 L77.65625,127.000148 L78.546875,125.59375 L101,89.90625 L101,119 L101,119.0156 C101.0136,120.84483 101.395145,122.77945 102.6875,124.406225 C103.979855,126.033025 106.19465,127.000148 108.5,127.000148 L182,127.000148 C184.668465,127.0068 187.24432,126.17214 189.5625,125.0625 C190.236565,124.739845 190.80811,124.346715 191.421875,123.984375 C192.4875,125.563895 194.548605,127.000148 197,127.000148 L215.96875,127.000148 C215.97935,127.000148 215.9894,127.000148 216,127.000148 C218.429465,127.01425 220.63987,126.00127 222.015625,124.4375 C222.219615,124.20563 222.376315,123.95048 222.546875,123.703125 C225.73304,125.573025 229.62212,127.000148 233.5,127.000148 L275.5,127.000148 L275.6875,127.000148 L275.859375,126.9844 C282.74784,126.1374 285.46301,124.82035 287.296875,123.687525 C288.69077,125.65746 290.62466,127.000148 293,127.000148 L312,127.000148 C313.712965,127.000148 315.09973,126.488385 316.703125,125.390625 C318.30652,124.292865 320,122.219885 320,119.5 L320,88.5 L332.5,88.5 C333.275905,88.5015 334.29862,88.840575 334.96875,89.390625 C335.63888,89.940675 336,90.522795 336,91.5 L336,119.5 L336,119.5156 C336.0145,121.383115 336.70486,122.752955 337.875,124.187475 C339.04514,125.621995 341.00261,127.000148 343.5,127.000148 L363,127.000148 C365.183555,127.000148 366.792965,125.96281 368.09375,124.687475 C369.394535,123.412165 370.5,121.740165 370.5,119.5 L370.5,81 L370.5,80.8125 L370.46875,80.625 C370.11278,77.80326 369.87848,74.12462 367.0625,69.5 L369.34375,69.5 C369.396975,69.503 369.446895,69.4975 369.5,69.5 C375.227415,69.74685 380.259845,66.62067 383.875,62.734375 C387.523675,58.812045 390,54.09402 390,49.5 L390,20.5 L390,20.484375 C389.98798,15.884051 388.055235,10.930213 384.421875,6.9375 C380.788515,2.94478705 375.295255,0 368.5,0 L326,0 C321.38804,0 317.39237,1.7236589 314.15625,3.90625 C313.94784,3.47616215 313.774765,3.0431955 313.46875,2.625 C312.48608,1.2821063 310.685105,0 308.5,0 L265.5,0 C261.57591,0 258.412365,1.1430998 256,2.484375 L256,0 L253,0 L184.5,0 L181.5,0 L181.5,3 L181.5,38.5 L172,38.5 L171.9844,38.5 L171.9688,38.5 C171.38239,38.507315 170.18075,38.242129 169.484425,37.78125 C168.78805,37.320371 168.5,37.013958 168.5,36 L168.5,7 C168.5,2.7644174 164.785505,0 161,0 L142,0 C139.75393,0 137.889175,1.1285472 136.65625,2.484375 C136.46911,2.69017155 136.368505,2.93891795 136.203125,3.15625 C133.479405,1.52034855 130.339855,0 126.5,0 L81.5,0 C77.0245,0 73.408475,1.8671076 70.578125,3.90625 C70.281755,3.23138025 69.839795,2.634781 69.28125,2.046875 C68.213585,0.92308585 66.500045,0 64.5,0 L22,0 Z" id="Shape" fill="#FFFFFF"></path>
                <path d="M68,10 C70.51948,7.551501 75.40619,3 81.5,3 L126.5,3 C130.630035,3 134.076005,5.354538 137.5,7.5 C137.65327,5.493301 139.51264,3 142,3 L161,3 C163.27066,3 165.5,4.719851 165.5,7 L165.5,36 C165.5,40.039364 169.562485,41.530407 172,41.5 L184.5,41.5 L184.5,3 L253,3 L253,8.5 C254.519085,7.030786 258.456165,3 265.5,3 L308.5,3 C310.72733,3 311.900645,5.3864555 312,7 L312,9.5 C314.99936,6.358254 320.20035,3 326,3 L368.5,3 C380.399345,3 386.980565,13.0618495 387,20.5 L387,49.5 C387,56.184015 378.631525,66.99264 369.5,66.5 L361,66.5 C367.134775,73.14486 366.985405,76.920875 367.5,81 L367.5,119.5 C367.5,121.63354 364.99651,124.000305 363,124.000305 L343.5,124.000305 C340.6842,124.000305 339.011135,120.93221 339,119.5 L339,91.5 C339,87.70577 335.509655,85.505535 332.5,85.5 L317,85.5 L317,119.5 C317,122.591615 313.370205,124.000305 312,124.000305 L293,124.000305 C291.237915,124.000305 289.36223,122.41331 288.5,119.5 C285.23439,121.052085 285.464975,122.774715 275.5,124.000305 L233.5,124.000305 C229.300135,124.000305 223.812175,121.38346 221,119 C221,121.497555 219.37119,124.032285 216,124.000305 L197,124.000305 C193.73119,124.000305 193,120.76201 193,119 C191.117505,121.263415 185.933875,124.009995 182,124.000305 L108.5,124.000305 C105.247755,124.000305 104.02071,121.79098 104,119 L104,79.5 L76,124.000305 L54,124.000305 L19,66 C9.5219005,66 3.0224997,56.34996 3,48 L3,20.5 C3,14.000409 8.067765,3 22,3 L64.5,3 C66.7894,3 68,4.958223 68,6 L68,10 Z M82,66.5 C76.03201,66.5 71.273555,63.02473 68,59.5 L68,63 C67.938305,65.470245 66.900685,66.5 64.5,66.5 L51.5,66.5 L65,91.5 L82,66.5 Z" id="Shape" fill="#000000"></path>
                <path d="M192.5,65 L192.5,80.5 L148.5,80.5 C143.47103,80.5 143.752115,85.5 148.5,85.5 C148.5,85.5 167.833335,85.5 177.5,85.5 C200.093595,85.5 200.087435,119 177.5,119 C162.333335,119 132,119 132,119 L132,104 C132,104 161,104 175.5,104 C180.706225,104 180.35252,99 175.5,99 C166.5,99 148.5,99 148.5,99 C125.28238,99 125.36453,65 148.5,65 C163.166665,65 192.5,65 192.5,65 Z M293.5,65 L345,65 C354.243325,65 362.47868,72.17654 362.5,82 L362.5,119 L344,119 L344,87 C344,81.659395 340.82358,80.57647 337,80.5 L312,80.5 L312,119 L293.5,119 L293.5,65 Z M245,80.060425 C240.084795,80.089425 238,83.175475 238,87 L238,97 C238,101.154125 241.571855,104 245,104 L265.5,104 C267.93069,104 272,102.354335 272,97 L272,87 C272,83.636715 269.950985,79.913335 265.5,79.9394371 L245,80.060425 Z M238,65 L272.5,65 C283.45058,65 290.5,72.458175 290.5,81.5 L290.5,101.5 C290.5,115.682165 278.246865,119 272.5,119 L238,119 C225.041105,119 219.5,108.57346 219.5,101.5 L219.5,81.5 C219.5,69.98456 229.805355,65 238,65 Z M197.5,65 L216,65 L216,119 L197.5,119 L197.5,65 Z M108.5,65 L127,65 L127,119 L108.5,119 L108.5,65 Z M24.5,65 L45,65 L65,100 L88.5,65 L105.5,65 L73.5,119 L56.691275,119 L24.5,65 Z M189.5,8 L248,8 L248,21.5 L207.5,21.5 L207.5,26.5 L248,26.5 L248,40 L207.5,40 C207.5,44.963599 211.145755,47 215,47 L248,47 L248,61.5 L205.5,61.5 C195.978075,61.5 189.430365,53.59552 189.452399,45 L189.5,8 Z M142.5,8 L160.5,8 L160.5,40 C160.5,44.5971405 163.96464,47.0477195 168,47 L187.5,47 L187.5,61.5 L159.5,61.5 C151.550335,61.5 142.5,57.92659 142.5,45 L142.5,8 Z M308.5,7.9991 L268,7.9991 C256.347355,7.9991 251.526635,18.7178045 251.5,24.4991 L251.5,44.4991 C251.5,57.469735 262.170155,62.07495 268,61.9991 L308.5,61.9991 L308.5,46.9991 L277.5,46.9991 C275.294165,46.9991 270,45.365649 270,40.4991 L270,29.9991 C270,24.997297 273.76537,22.9991 277.5,22.9991 L308.5,22.9991 L308.5,7.9991 Z M337.5,23.0604455 C332.584795,23.0894205 330.5,26.175497 330.5,30.00002 L330.5,40.00002 C330.5,44.154146 334.071855,47.00002 337.5,47.00002 L358,47.00002 C360.43069,47.00002 364.5,45.354355 364.5,40.00002 L364.5,30.00002 C364.5,26.636734 362.450985,22.913356 358,22.9394571 L337.5,23.0604455 Z M330.5,7.9999985 L365,7.9999985 C375.95058,7.9999985 383,15.458198 383,24.50002 L383,44.50002 C383,58.682165 370.746865,61.9999985 365,61.9999985 L330.5,61.9999985 C317.541105,61.9999985 312,51.57346 312,44.4999985 L312,24.4999985 C312,12.984557 322.305355,7.9999985 330.5,7.9999985 L330.5,7.9999985 Z M93.5,23.0604255 C88.584795,23.0894015 86.5,26.175477 86.5,30 L86.5,40 C86.5,44.154126 90.071855,47 93.5,47 L114,47 C116.43069,47 120.5,45.354335 120.5,40 L120.5,30 C120.5,26.636714 118.450985,22.913336 114,22.9394371 L93.5,23.0604255 Z M86.5,8 L121,8 C131.95058,8 139,15.458178 139,24.5 L139,44.5 C139,58.682165 126.746865,62 121,62 L86.5,62 C73.541105,62 68.5,51.57346 68.5,44.5 L68.5,24.5 C68.5,12.9845585 78.305355,8 86.5,8 Z M65,8 L24.5,8 C12.8473525,8 8.026633,18.7187045 8,24.5 L8,44.5 C8,57.470635 18.6701565,62.07585 24.5,62 L65,62 L65,47 L33.5,47 C31.2941665,47 26,45.366549 26,40.5 L26,30 C26,24.998197 29.765369,23 33.5,23 L65,23 L65,8 Z" id="Shape" fill="url(#linearGradient-1)"></path>
            </g>
            <g id="Group-9" transform="translate(390.000000, 0.000000)" fill="#FFFFFF">
                <polygon id="Path" points="2.11538462 6.5 2.11538462 0.968085106 0 0.968085106 0 0 5.5 0 5.5 0.968085106 3.1025641 0.968085106 3.1025641 6.5"></polygon>
                <polygon id="Path" points="6.5 6.5 6.5 3.07082964e-16 8.15957447 3.07082964e-16 9.81914894 5.25531915 11.4787234 0 13 0 13 6.5 12.0319149 6.5 12.0319149 0.968085106 10.3723404 6.5 9.40425532 6.5 7.60638298 0.968085106 7.60638298 6.5"></polygon>
            </g>
        </g>
    </g>
</svg>
